X: 34199
T: Reel Of The Gordon Highlanders, The
R: reel
M: 4/4
K: Amixolydian
|:ce|a2A2 AecA|d2f2 f2ed|1 c2ec AecA|c2B2 B2:|2 c2af ecdB|c2A2 A2||
|:ed|c2ec AecA|d2f2 f2ed|1 c2ec AecA|d2B2 B2:|2 c2af ecdB|c2A2 A2||
|:ce|aaAa caea|ffad dafa|1 ceaf ecBA|c2B2 B2:|2 ceaf ecdB|c2A2 A2||
|:ed|c2ec AecA|d2fd AfdA|1 c2ec AecA|d2B2 B2:|2 c2af ecdB|c2A2 A2||

